(G-CODE GENERATED BY FLATCAM v8.994 - www.flatcam.org - Version Date: 2020/11/7)

(Name: Gerber_BottomSolderMaskLayer.GBS_iso_combined_cnc)
(Type: G-code from Geometry)
(Units: MM)

(Created on Thursday, 11 July 2024 at 23:15)

(This preprocessor is the default preprocessor used by FlatCAM.)
(It is made to work with MACH3 compatible motion controllers.)

(TOOL DIAMETER: 0.1 mm)
(Feedrate_XY: 120.0 mm/min)
(Feedrate_Z: 60.0 mm/min)
(Feedrate rapids 1500.0 mm/min)

(Z_Cut: 0.0 mm)
(Z_Move: 2.0 mm)
(Z Start: None mm)
(Z End: 15.0 mm)
(X,Y End: None mm)
(Steps per circle: 64)
(Preprocessor Geometry: default)

(X range:    1.5502 ...   88.4928  mm)
(Y range:   17.1712 ...   44.4238  mm)

(Spindle Speed: 0.0 RPM)
G21
G90
G94

G01 F120.00

M5
G00 Z15.0000
G00 X0.0000 Y0.0000
T1
M6    
(MSG, Change to Tool Dia = 0.1000)
M0
G00 Z15.0000

M03
G01 F120.00
G00 X3.2757 Y18.0365
G01 F60.00
G01 Z0.0000
G01 F120.00
G01 X3.2716 Y18.1186
G01 X3.2592 Y18.2023
G01 X3.2386 Y18.2845
G01 X3.2101 Y18.3642
G01 X3.1739 Y18.4407
G01 X3.1304 Y18.5133
G01 X3.0800 Y18.5814
G01 X3.0231 Y18.6441
G01 X2.9604 Y18.7010
G01 X2.8923 Y18.7514
G01 X2.8197 Y18.7949
G01 X2.7432 Y18.8311
G01 X2.6635 Y18.8596
G01 X2.5813 Y18.8802
G01 X2.4976 Y18.8926
G01 X2.4130 Y18.8968
G01 X2.3284 Y18.8926
G01 X2.2447 Y18.8802
G01 X2.1625 Y18.8596
G01 X2.0828 Y18.8311
G01 X2.0063 Y18.7949
G01 X1.9337 Y18.7514
G01 X1.8656 Y18.7010
G01 X1.8029 Y18.6441
G01 X1.7460 Y18.5814
G01 X1.6956 Y18.5133
G01 X1.6521 Y18.4407
G01 X1.6159 Y18.3642
G01 X1.5874 Y18.2845
G01 X1.5668 Y18.2023
G01 X1.5544 Y18.1186
G01 X1.5502 Y18.0340
G01 X1.5544 Y17.9494
G01 X1.5668 Y17.8657
G01 X1.5874 Y17.7835
G01 X1.6159 Y17.7038
G01 X1.6521 Y17.6273
G01 X1.6956 Y17.5547
G01 X1.7460 Y17.4866
G01 X1.8029 Y17.4239
G01 X1.8656 Y17.3670
G01 X1.9337 Y17.3166
G01 X2.0063 Y17.2731
G01 X2.0828 Y17.2369
G01 X2.1625 Y17.2084
G01 X2.2447 Y17.1878
G01 X2.3284 Y17.1754
G01 X2.4130 Y17.1712
G01 X2.4976 Y17.1754
G01 X2.5813 Y17.1878
G01 X2.6635 Y17.2084
G01 X2.7432 Y17.2369
G01 X2.8197 Y17.2731
G01 X2.8923 Y17.3166
G01 X2.9604 Y17.3670
G01 X3.0231 Y17.4239
G01 X3.0800 Y17.4866
G01 X3.1304 Y17.5547
G01 X3.1739 Y17.6273
G01 X3.2101 Y17.7038
G01 X3.2386 Y17.7835
G01 X3.2592 Y17.8657
G01 X3.2716 Y17.9494
G01 X3.2757 Y18.0365
G00 Z2.0000
G00 X3.2757 Y43.5635
G01 F60.00
G01 Z0.0000
G01 F120.00
G01 X3.2716 Y43.6456
G01 X3.2592 Y43.7293
G01 X3.2386 Y43.8115
G01 X3.2101 Y43.8912
G01 X3.1739 Y43.9677
G01 X3.1304 Y44.0403
G01 X3.0800 Y44.1084
G01 X3.0231 Y44.1711
G01 X2.9604 Y44.2280
G01 X2.8923 Y44.2784
G01 X2.8197 Y44.3219
G01 X2.7432 Y44.3581
G01 X2.6635 Y44.3866
G01 X2.5813 Y44.4072
G01 X2.4976 Y44.4196
G01 X2.4130 Y44.4238
G01 X2.3284 Y44.4196
G01 X2.2447 Y44.4072
G01 X2.1625 Y44.3866
G01 X2.0828 Y44.3581
G01 X2.0063 Y44.3219
G01 X1.9337 Y44.2784
G01 X1.8656 Y44.2280
G01 X1.8029 Y44.1711
G01 X1.7460 Y44.1084
G01 X1.6956 Y44.0403
G01 X1.6521 Y43.9677
G01 X1.6159 Y43.8912
G01 X1.5874 Y43.8115
G01 X1.5668 Y43.7293
G01 X1.5544 Y43.6456
G01 X1.5502 Y43.5610
G01 X1.5544 Y43.4764
G01 X1.5668 Y43.3927
G01 X1.5874 Y43.3105
G01 X1.6159 Y43.2308
G01 X1.6521 Y43.1543
G01 X1.6956 Y43.0817
G01 X1.7460 Y43.0136
G01 X1.8029 Y42.9509
G01 X1.8656 Y42.8940
G01 X1.9337 Y42.8436
G01 X2.0063 Y42.8001
G01 X2.0828 Y42.7639
G01 X2.1625 Y42.7354
G01 X2.2447 Y42.7148
G01 X2.3284 Y42.7024
G01 X2.4130 Y42.6982
G01 X2.4976 Y42.7024
G01 X2.5813 Y42.7148
G01 X2.6635 Y42.7354
G01 X2.7432 Y42.7639
G01 X2.8197 Y42.8001
G01 X2.8923 Y42.8436
G01 X2.9604 Y42.8940
G01 X3.0231 Y42.9509
G01 X3.0800 Y43.0136
G01 X3.1304 Y43.0817
G01 X3.1739 Y43.1543
G01 X3.2101 Y43.2308
G01 X3.2386 Y43.3105
G01 X3.2592 Y43.3927
G01 X3.2716 Y43.4764
G01 X3.2757 Y43.5635
G00 Z2.0000
G00 X87.9847 Y43.5635
G01 F60.00
G01 Z0.0000
G01 F120.00
G01 X87.9806 Y43.6456
G01 X87.9682 Y43.7293
G01 X87.9476 Y43.8115
G01 X87.9191 Y43.8912
G01 X87.8829 Y43.9677
G01 X87.8394 Y44.0403
G01 X87.7890 Y44.1084
G01 X87.7321 Y44.1711
G01 X87.6694 Y44.2280
G01 X87.6013 Y44.2784
G01 X87.5287 Y44.3219
G01 X87.4522 Y44.3581
G01 X87.3725 Y44.3866
G01 X87.2903 Y44.4072
G01 X87.2066 Y44.4196
G01 X87.1220 Y44.4238
G01 X87.0374 Y44.4196
G01 X86.9537 Y44.4072
G01 X86.8715 Y44.3866
G01 X86.7918 Y44.3581
G01 X86.7153 Y44.3219
G01 X86.6427 Y44.2784
G01 X86.5746 Y44.2280
G01 X86.5119 Y44.1711
G01 X86.4550 Y44.1084
G01 X86.4046 Y44.0403
G01 X86.3611 Y43.9677
G01 X86.3249 Y43.8912
G01 X86.2964 Y43.8115
G01 X86.2758 Y43.7293
G01 X86.2634 Y43.6456
G01 X86.2592 Y43.5610
G01 X86.2634 Y43.4764
G01 X86.2758 Y43.3927
G01 X86.2964 Y43.3105
G01 X86.3249 Y43.2308
G01 X86.3611 Y43.1543
G01 X86.4046 Y43.0817
G01 X86.4550 Y43.0136
G01 X86.5119 Y42.9509
G01 X86.5746 Y42.8940
G01 X86.6427 Y42.8436
G01 X86.7153 Y42.8001
G01 X86.7918 Y42.7639
G01 X86.8715 Y42.7354
G01 X86.9537 Y42.7148
G01 X87.0374 Y42.7024
G01 X87.1220 Y42.6982
G01 X87.2066 Y42.7024
G01 X87.2903 Y42.7148
G01 X87.3725 Y42.7354
G01 X87.4522 Y42.7639
G01 X87.5287 Y42.8001
G01 X87.6013 Y42.8436
G01 X87.6694 Y42.8940
G01 X87.7321 Y42.9509
G01 X87.7890 Y43.0136
G01 X87.8394 Y43.0817
G01 X87.8829 Y43.1543
G01 X87.9191 Y43.2308
G01 X87.9476 Y43.3105
G01 X87.9682 Y43.3927
G01 X87.9806 Y43.4764
G01 X87.9847 Y43.5635
G00 Z2.0000
G00 X88.4927 Y18.0365
G01 F60.00
G01 Z0.0000
G01 F120.00
G01 X88.4886 Y18.1186
G01 X88.4762 Y18.2023
G01 X88.4556 Y18.2845
G01 X88.4271 Y18.3642
G01 X88.3909 Y18.4407
G01 X88.3474 Y18.5133
G01 X88.2970 Y18.5814
G01 X88.2401 Y18.6441
G01 X88.1774 Y18.7010
G01 X88.1093 Y18.7514
G01 X88.0367 Y18.7949
G01 X87.9602 Y18.8311
G01 X87.8805 Y18.8596
G01 X87.7983 Y18.8802
G01 X87.7146 Y18.8926
G01 X87.6300 Y18.8968
G01 X87.5454 Y18.8926
G01 X87.4617 Y18.8802
G01 X87.3795 Y18.8596
G01 X87.2998 Y18.8311
G01 X87.2233 Y18.7949
G01 X87.1507 Y18.7514
G01 X87.0826 Y18.7010
G01 X87.0199 Y18.6441
G01 X86.9630 Y18.5814
G01 X86.9126 Y18.5133
G01 X86.8691 Y18.4407
G01 X86.8329 Y18.3642
G01 X86.8044 Y18.2845
G01 X86.7838 Y18.2023
G01 X86.7714 Y18.1186
G01 X86.7672 Y18.0340
G01 X86.7714 Y17.9494
G01 X86.7838 Y17.8657
G01 X86.8044 Y17.7835
G01 X86.8329 Y17.7038
G01 X86.8691 Y17.6273
G01 X86.9126 Y17.5547
G01 X86.9630 Y17.4866
G01 X87.0199 Y17.4239
G01 X87.0826 Y17.3670
G01 X87.1507 Y17.3166
G01 X87.2233 Y17.2731
G01 X87.2998 Y17.2369
G01 X87.3795 Y17.2084
G01 X87.4617 Y17.1878
G01 X87.5454 Y17.1754
G01 X87.6300 Y17.1712
G01 X87.7146 Y17.1754
G01 X87.7983 Y17.1878
G01 X87.8805 Y17.2084
G01 X87.9602 Y17.2369
G01 X88.0367 Y17.2731
G01 X88.1093 Y17.3166
G01 X88.1774 Y17.3670
G01 X88.2401 Y17.4239
G01 X88.2970 Y17.4866
G01 X88.3474 Y17.5547
G01 X88.3909 Y17.6273
G01 X88.4271 Y17.7038
G01 X88.4556 Y17.7835
G01 X88.4762 Y17.8657
G01 X88.4886 Y17.9494
G01 X88.4927 Y18.0365
G00 Z2.0000
M05
G00 Z2.0000
G00 Z15.00


